assets/spraw/zhp_harc_sim_2022/wodne/wiking.svg

<svg xmlns="http://www.w3.org/2000/svg" viewBox="0 0 90.709 90.709"><circle transform="matrix(.9239 -.3827 .3827 .9239 -13.9041 20.8088)" cx="45.354" cy="45.355" r="43.52" fill="#194093"/><path d="M45.354 2.835c23.483 0 42.52 19.037 42.52 42.52s-19.037 42.52-42.52 42.52-42.52-19.037-42.52-42.52 19.037-42.52 42.52-42.52m0-2C20.806.835.834 20.806.834 45.355s19.971 44.52 44.52 44.52 44.52-19.971 44.52-44.52S69.903.835 45.354.835h0z" fill="#252e78"/><path d="M58.479 45.183a12.89 12.89 0 0 1 1.235-5.509l.311-.645c-4.108-3.001-9.18-4.777-14.671-4.777a24.79 24.79 0 0 0-14.665 4.772l.305.65c.82 1.747 1.235 3.601 1.235 5.509 0 6.439-4.81 11.967-11.188 12.858l-.454.063-.019.751v2.167h49.57v-2.167c0-.252-.012-.501-.019-.751l-.454-.063c-6.377-.891-11.186-6.419-11.186-12.858z" fill="#f8c409"/><path d="M20.57 74.356h49.57V64.272H20.57v10.084zm39.878-8.444c1.879 0 3.402 1.523 3.402 3.402s-1.523 3.402-3.402 3.402-3.402-1.523-3.402-3.402 1.523-3.402 3.402-3.402zm-15.094 0c1.879 0 3.402 1.523 3.402 3.402s-1.523 3.402-3.402 3.402-3.402-1.523-3.402-3.402 1.524-3.402 3.402-3.402zm-15.093 0c1.879 0 3.402 1.523 3.402 3.402s-1.523 3.402-3.402 3.402-3.402-1.523-3.402-3.402 1.524-3.402 3.402-3.402zM9.544 36.833c0 7.992 4.503 14.928 11.109 18.42 4.949-.692 8.762-4.93 8.762-10.07 0-1.544-.354-3.002-.969-4.313-.332.025-.665.051-1.004.051a13.23 13.23 0 0 1-13.227-13.227c0-1.85.382-3.609 1.068-5.208-3.554 3.735-5.739 8.784-5.739 14.347zm60.512 18.42c6.605-3.492 11.109-10.429 11.109-18.42 0-5.563-2.185-10.612-5.739-14.348.686 1.599 1.068 3.358 1.068 5.208A13.23 13.23 0 0 1 63.267 40.92c-.339 0-.671-.026-1.004-.051-.615 1.311-.969 2.769-.969 4.313 0 5.141 3.813 9.38 8.762 10.071z" fill="#fff"/></svg>

<?xml version="1.0" encoding="iso-8859-1"?>
<!-- Generator: Adobe Illustrator 22.1.0, SVG Export Plug-In . SVG Version: 6.00 Build 0)  -->
<svg version="1.1" xmlns="http://www.w3.org/2000/svg" xmlns:xlink="http://www.w3.org/1999/xlink" x="0px" y="0px"
	 viewBox="0 0 90.709 90.709" style="enable-background:new 0 0 90.709 90.709;" xml:space="preserve">
<g id="ratownik-1">
	<g>
		<g>
			
				<ellipse transform="matrix(0.9239 -0.3827 0.3827 0.9239 -13.9041 20.8088)" style="fill:#194093;" cx="45.354" cy="45.355" rx="43.52" ry="43.52"/>
			<g>
				<path style="fill:#252E78;" d="M45.354,2.835c23.483,0,42.52,19.037,42.52,42.52s-19.037,42.52-42.52,42.52
					s-42.52-19.037-42.52-42.52S21.871,2.835,45.354,2.835 M45.354,0.835c-24.548,0-44.52,19.971-44.52,44.52
					s19.971,44.52,44.52,44.52s44.52-19.971,44.52-44.52S69.903,0.835,45.354,0.835L45.354,0.835z"/>
			</g>
		</g>
	</g>
</g>
<g id="Warstwa_4">
	<g>
		<path style="fill:#F8C409;" d="M58.479,45.183c0-1.908,0.416-3.762,1.235-5.509l0.311-0.645c-4.108-3.001-9.18-4.777-14.671-4.777
			c-5.488,0-10.558,1.774-14.665,4.772l0.305,0.65c0.82,1.747,1.235,3.601,1.235,5.509c0,6.439-4.81,11.967-11.188,12.858
			l-0.454,0.063c-0.008,0.25-0.019,0.499-0.019,0.751v2.167h49.57v-2.167c0-0.252-0.012-0.501-0.019-0.751l-0.454-0.063
			C63.288,57.15,58.479,51.622,58.479,45.183z"/>
		<path style="fill:#FFFFFF;" d="M20.57,74.356h49.57V64.272H20.57V74.356z M60.448,65.912c1.879,0,3.402,1.523,3.402,3.402
			c0,1.879-1.523,3.402-3.402,3.402c-1.879,0-3.402-1.523-3.402-3.402C57.046,67.435,58.569,65.912,60.448,65.912z M45.354,65.912
			c1.879,0,3.402,1.523,3.402,3.402c0,1.879-1.523,3.402-3.402,3.402c-1.879,0-3.402-1.523-3.402-3.402
			C41.953,67.435,43.476,65.912,45.354,65.912z M30.261,65.912c1.879,0,3.402,1.523,3.402,3.402c0,1.879-1.523,3.402-3.402,3.402
			c-1.879,0-3.402-1.523-3.402-3.402C26.86,67.435,28.383,65.912,30.261,65.912z"/>
		<path style="fill:#FFFFFF;" d="M9.544,36.833c0,7.992,4.503,14.928,11.109,18.42c4.949-0.692,8.762-4.93,8.762-10.07
			c0-1.544-0.354-3.002-0.969-4.313c-0.332,0.025-0.665,0.051-1.004,0.051c-7.305,0-13.227-5.922-13.227-13.227
			c0-1.85,0.382-3.609,1.068-5.208C11.729,26.221,9.544,31.27,9.544,36.833z"/>
		<path style="fill:#FFFFFF;" d="M70.056,55.253c6.605-3.492,11.109-10.429,11.109-18.42c0-5.563-2.185-10.612-5.739-14.348
			c0.686,1.599,1.068,3.358,1.068,5.208c0,7.305-5.922,13.227-13.227,13.227c-0.339,0-0.671-0.026-1.004-0.051
			c-0.615,1.311-0.969,2.769-0.969,4.313C61.294,50.323,65.107,54.562,70.056,55.253z"/>
	</g>
</g>
</svg>
